digitransit-component/packages/digitransit-component-icon/src/assets/bike-park.svg

<svg id="icon-icon_bike-park" viewBox="0 0 36 36" fill="none">
	<path d="M0 4.5C0 2.01472 2.01472 0 4.5 0H31.5C33.9853 0 36 2.01472 36 4.5V31.5C36 33.9853 33.9853 36 31.5 36H4.5C2.01472 36 0 33.9853 0 31.5V4.5Z" fill="#FCBC19"/>
	<path d="M4.5 20.9514C4.5 21.3853 4.64903 21.7519 4.94709 22.0511C5.24515 22.3504 5.61955 22.5 6.07027 22.5C6.49192 22.5 6.85178 22.3466 7.14984 22.0399C7.4479 21.7332 7.59693 21.3703 7.59693 20.9514V16.6197H11.021C13.042 16.6197 14.7104 16.0848 16.0263 15.015C17.301 13.9786 17.9582 12.5385 17.9981 10.6947L18 10.4701C18 8.65959 17.4039 7.21198 16.2116 6.12718C15.0194 5.04239 13.4128 4.5 11.3918 4.5H6.07027C5.61955 4.5 5.24515 4.65337 4.94709 4.9601C4.64903 5.26683 4.5 5.64464 4.5 6.09352V20.9514ZM7.59693 13.8142V7.39526H11.1082C12.2714 7.39526 13.191 7.66085 13.8671 8.19202C14.5138 8.7001 14.8512 9.44432 14.8793 10.4247L14.8813 10.6047C14.8813 11.5474 14.5432 12.318 13.8671 12.9165C13.191 13.515 12.2714 13.8142 11.1082 13.8142H7.59693Z" fill="#333333"/>
	<path d="M18.5128 27.0804C18.3535 26.4772 18.1487 25.9993 17.8869 25.6806L17.2041 26.5341L17.4886 27.0804H18.5128ZM28.5958 32.9299C28.7324 32.9299 28.8462 32.9185 28.9031 32.8844C30.1777 32.7819 31.1791 32.2584 31.9303 31.3139C32.6472 30.4262 33 29.4475 33 28.3778C33 27.7177 32.8634 27.1032 32.6017 26.5228C32.3399 25.9537 31.9758 25.4416 31.5206 25.0092C30.6443 24.2126 29.6428 23.8256 28.4934 23.8256H28.0723C28.004 23.8256 27.913 23.837 27.7764 23.8484C27.6399 23.8598 27.4919 23.9053 27.3326 23.9736L27.7878 24.9181C27.8789 24.884 28.3113 24.8271 28.4023 24.8271H28.4934C29.3469 24.8271 30.1322 25.1457 30.8491 25.7717C31.5888 26.5341 31.9644 27.399 31.9644 28.3891C31.9644 29.2085 31.6913 29.9596 31.1336 30.6197C30.8036 31.0521 30.3939 31.3822 29.9046 31.587C29.4152 31.7919 28.9372 31.9057 28.4365 31.9057C27.5943 31.917 26.8205 31.6325 26.1035 31.0294C25.3524 30.2555 24.9883 29.3678 24.9883 28.3891C24.9769 27.5925 25.1817 26.9211 25.6028 26.3521L25.0793 25.362L25.0338 25.4644C24.3168 26.3521 23.964 27.3308 23.964 28.4005C23.964 29.7206 24.4648 30.8473 25.4662 31.7691C26.3425 32.5657 27.3326 32.9526 28.4365 32.9526H28.5958V32.9299ZM14.2225 32.9299C15.5198 32.9299 16.5896 32.4633 17.4317 31.5529C17.9894 30.9838 18.3649 30.3466 18.547 29.6182H17.4886C17.3634 30.0507 17.1131 30.4717 16.7261 30.8587C16.0319 31.5529 15.2126 31.9057 14.268 31.9057C13.3007 31.9057 12.4813 31.5529 11.7985 30.8587C11.1156 30.1645 10.7742 29.3337 10.7742 28.3891C10.7742 27.399 11.1043 26.5797 11.7529 25.9196C12.4699 25.1913 13.2893 24.8271 14.2338 24.8271C14.5184 24.8271 14.8598 24.8726 15.2581 24.975L15.8954 24.1101C15.3719 23.9167 14.8142 23.8142 14.2225 23.8142C12.982 23.8142 11.935 24.2581 11.0587 25.1457C10.1825 26.0334 9.75 27.1145 9.75 28.3664C9.75 29.6296 10.1825 30.6993 11.0587 31.587C11.935 32.4861 12.982 32.9299 14.2225 32.9299ZM20.3223 27.8315H15.2922L18.3649 23.7573L20.3223 27.8315ZM21.1986 27.3763L19.2412 23.3021H24.1689C23.6795 24.0305 23.0308 24.9295 22.2115 25.9879C21.6652 26.7504 21.3238 27.217 21.1986 27.3763ZM21.0051 28.8785L21.0962 28.833C21.3693 28.8216 21.5855 28.685 21.7335 28.4233L22.2684 27.6153C23.2812 26.3748 24.2485 25.0547 25.1476 23.6663L26.3653 26.0903C26.7977 27.0463 27.3667 27.877 28.0837 28.6054C28.243 28.7874 28.4024 28.8785 28.5617 28.8785C28.8007 28.8671 28.9714 28.7533 29.0624 28.5598C29.1535 28.3322 29.1079 28.1274 28.9258 27.9339C28.2089 27.1259 27.674 26.3634 27.3098 25.6351L26.0239 23.1087C25.9897 23.0404 25.9783 22.9266 25.9783 22.7673C25.9783 22.6876 26.0125 22.551 26.0694 22.3576L26.3994 21.9251C26.8319 21.3902 27.0595 20.9692 27.0936 20.6391C27.1619 20.4343 27.1847 20.2863 27.1847 20.2294C27.1847 19.888 27.0936 19.6035 26.9001 19.3759C26.5815 18.9548 26.1604 18.75 25.6711 18.75H25.5231C25.0907 18.7614 24.681 18.9548 24.3168 19.3304C24.2258 19.4214 24.1689 19.5466 24.1689 19.7059C24.1689 19.8539 24.203 19.9791 24.2599 20.0815C24.351 20.1725 24.4875 20.2294 24.6468 20.2294C24.7948 20.2294 24.9086 20.1839 24.9996 20.0815C25.2272 19.8539 25.4321 19.7401 25.6142 19.7401C25.7849 19.7401 25.9442 19.8084 26.0694 19.9336C26.1604 20.127 26.1832 20.2863 26.1149 20.4229C26.1035 20.5822 25.9328 20.8781 25.6142 21.322L25.1817 21.8796L24.9427 22.221L24.8972 22.2665H18.7518L17.8414 20.3774C18.1714 20.2408 18.5015 20.1839 18.8201 20.1839L19.1046 20.1384C19.4574 20.1384 19.6281 19.9791 19.6281 19.649C19.6281 19.5011 19.5712 19.3873 19.4574 19.3076C19.3436 19.228 19.207 19.1825 19.0591 19.1825H15.793C15.3377 19.1938 15.0988 19.3532 15.0988 19.6377C15.0988 19.9336 15.2581 20.1612 15.5881 20.3319C15.9181 20.5026 16.2937 20.5822 16.7148 20.5822H16.8058L17.83 22.7673L13.8924 28.0363C13.8242 28.1615 13.8014 28.2867 13.8014 28.4233C13.8014 28.5485 13.8697 28.6509 13.9949 28.7078C14.0859 28.8216 14.1883 28.8785 14.3249 28.8785H21.0051Z" fill="#333333"/>
</svg>

<svg fill="none" viewBox="0 0 36 36">
 <path fill="#fcbc19" d="M0 4.5A4.5 4.5 0 0 1 4.5 0h27A4.5 4.5 0 0 1 36 4.5v27a4.5 4.5 0 0 1-4.5 4.5h-27A4.5 4.5 0 0 1 0 31.5z"/>
 <path fill="#333" d="M4.5 20.951q0 .65.447 1.1t1.123.449a1.45 1.45 0 0 0 1.08-.46 1.5 1.5 0 0 0 .447-1.089V16.62h3.424q3.032 0 5.005-1.605 1.912-1.554 1.972-4.32L18 10.47q0-2.715-1.788-4.343-1.79-1.627-4.82-1.627H6.07a1.5 1.5 0 0 0-1.123.46A1.56 1.56 0 0 0 4.5 6.094zm3.097-7.137V7.395h3.511q1.744 0 2.76.797.969.762 1.011 2.233l.002.18q0 1.413-1.014 2.311t-2.759.898zM18.513 27.08c-.16-.603-.364-1.08-.626-1.4l-.683.854.285.546zm10.083 5.85c.136 0 .25-.011.307-.046 1.275-.102 2.276-.626 3.027-1.57.717-.888 1.07-1.866 1.07-2.936 0-.66-.137-1.275-.398-1.855a4.9 4.9 0 0 0-1.081-1.514c-.877-.796-1.878-1.183-3.028-1.183h-.42c-.069 0-.16.011-.297.022a1.5 1.5 0 0 0-.443.126l.455.944c.09-.034.523-.09.614-.09h.091c.854 0 1.64.318 2.356.944.74.762 1.115 1.627 1.115 2.617 0 .82-.273 1.57-.83 2.23-.33.433-.74.763-1.23.968-.489.205-.967.319-1.468.319-.842.011-1.616-.273-2.332-.877-.752-.773-1.116-1.661-1.116-2.64-.011-.796.194-1.468.615-2.037l-.524-.99-.045.102c-.717.888-1.07 1.867-1.07 2.937 0 1.32.5 2.446 1.502 3.368.877.797 1.867 1.184 2.97 1.184h.16zm-14.373 0c1.297 0 2.367-.467 3.209-1.377.557-.57.933-1.206 1.115-1.935h-1.058c-.126.433-.376.854-.763 1.24-.694.695-1.513 1.048-2.458 1.048-.967 0-1.787-.353-2.47-1.047-.682-.695-1.024-1.525-1.024-2.47 0-.99.33-1.81.979-2.47.717-.728 1.536-1.092 2.48-1.092.285 0 .627.046 1.025.148l.637-.865a4.8 4.8 0 0 0-1.672-.296c-1.241 0-2.288.444-3.164 1.332-.876.887-1.309 1.968-1.309 3.22 0 1.264.432 2.333 1.309 3.221.876.9 1.923 1.343 3.164 1.343m6.1-5.099h-5.03l3.072-4.074zm.876-.455-1.958-4.074h4.928a50 50 0 0 1-1.957 2.686c-.547.762-.888 1.229-1.013 1.388m-.194 1.502.091-.045c.273-.011.49-.148.637-.41l.535-.808a45 45 0 0 0 2.88-3.949l1.217 2.424a8.6 8.6 0 0 0 1.719 2.515q.238.273.478.273c.239-.01.41-.125.5-.318.091-.228.046-.433-.136-.626-.717-.808-1.252-1.57-1.616-2.299l-1.286-2.526c-.034-.069-.046-.182-.046-.342 0-.08.034-.216.091-.41l.33-.432c.433-.535.66-.956.695-1.286.068-.205.09-.353.09-.41 0-.341-.09-.625-.284-.853-.319-.421-.74-.626-1.229-.626h-.148c-.432.011-.842.205-1.206.58a.51.51 0 0 0-.148.376c0 .148.034.273.09.375a.54.54 0 0 0 .388.148.44.44 0 0 0 .353-.148q.34-.34.614-.34c.17 0 .33.067.455.193.091.193.114.352.046.489-.011.16-.182.455-.5.899l-.433.558-.24.341-.045.046h-6.145l-.91-1.89c.33-.136.66-.193.978-.193l.285-.046c.352 0 .523-.159.523-.489a.39.39 0 0 0-.17-.341.7.7 0 0 0-.399-.125h-3.266c-.455.01-.694.17-.694.455 0 .296.16.523.49.694s.705.25 1.126.25h.09l1.025 2.185-3.938 5.27a.8.8 0 0 0-.09.386c0 .126.068.228.193.285a.4.4 0 0 0 .33.17z"/>
</svg>
